X:425
T:
S:Efter »Florsen» i Burs.
R:vals
O:Gotland, Burs
M:3/4
L:1/8
K:G
B2|c4 A2|d4 B2|c4 A2|d4 Bg|e6|e2 d^c d2|d2 cB c2|c2 BA B2|c4 A2|
d4 B2|c4 A2|d4 Bg|e6|e2 d^c d2|d2 c2 F2|G4::dg|b4 a2|g3 agf|edcBAB|
d2 c2 ce|a4 f2|d3 Adf|a4 ^c2|e2 d2 dg|b4 a2|g3 agf|edcBAB|d2 c2 ce|
a4 f2|d3 BGA|B4 A2|G4::d2|B2 G2 d2|B2 G2 d2|B2 G2 e2|d6|^c2 d2 b2|
a6|g2 f2 e2|d4 de|=f2 c2 g2|e2 c2 g2|=f2 ^f2 g2|c'6|b2 d2 b2|
a2 d2 a2|g3 g g2|g4:|

